icons/lua.svg

<svg xmlns="http://www.w3.org/2000/svg" width="20" height="20" viewBox="0 0 32 32">
  <g>
    <path fill="currentColor" d="M17 4h-0.8c-0.4 0 -0.8 0.4 -0.9 0.8s0.1 0.9 0.5 1.1C18.4 7.3 20 10 20 13c0 4.4 -3.6 8 -8 8 -2.3 0 -4.6 -1 -6.1 -2.8 -0.3 -0.3 -0.8 -0.4 -1.2 -0.3 -0.4 0.2 -0.6 0.6 -0.6 1.1C5.1 25.4 10.5 30 16.9 30c7.2 0 13 -5.8 13 -13S24.2 4 17 4"/>
    <path fill="currentColor" d="M6 13.2c0.1 0.5 0.5 0.8 1 0.8s0.9 -0.3 1 -0.8c0.5 -2.2 1 -2.7 3.3 -3.3 0.4 0 0.7 -0.4 0.7 -0.9s-0.3 -0.9 -0.8 -1C9 7.5 8.5 7 8 4.8c-0.1 -0.5 -0.5 -0.8 -1 -0.8s-0.9 0.3 -1 0.8C5.5 7 5 7.5 2.8 8c-0.5 0.1 -0.8 0.5 -0.8 1s0.3 0.9 0.8 1c2.2 0.5 2.7 1 3.2 3.2"/>
    <path fill="currentColor" d="M11 14c-0.6 0 -1 0.4 -1 1s0.4 1 1 1c0 0.6 0.4 1 1 1s1 -0.4 1 -1c0.6 0 1 -0.4 1 -1s-0.4 -1 -1 -1c0 -0.6 -0.4 -1 -1 -1s-1 0.4 -1 1"/>
  </g>
</svg>

<?xml version="1.0" ?>
<svg id="Icons" style="enable-background:new 0 0 32 32;" version="1.1" viewBox="0 0 32 32" xml:space="preserve" xmlns="http://www.w3.org/2000/svg" xmlns:xlink="http://www.w3.org/1999/xlink">
	<g>
		<path d="M17,4c-0.2,0-0.5,0-0.7,0l-0.1,0c-0.4,0-0.8,0.4-0.9,0.8s0.1,0.9,0.5,1.1C18.4,7.3,20,10,20,13c0,4.4-3.6,8-8,8   c-2.3,0-4.6-1-6.1-2.8c-0.3-0.3-0.8-0.4-1.2-0.3c-0.4,0.2-0.6,0.6-0.6,1.1c1,6.4,6.4,11,12.8,11c7.2,0,13-5.8,13-13S24.2,4,17,4z"/>
		<path d="M6,13.2C6.1,13.7,6.5,14,7,14s0.9-0.3,1-0.8c0.5-2.2,1-2.7,3.3-3.3C11.7,9.9,12,9.5,12,9s-0.3-0.9-0.8-1C9,7.5,8.5,7,8,4.8   C7.9,4.3,7.5,4,7,4S6.1,4.3,6,4.8C5.5,7,5,7.5,2.8,8C2.3,8.1,2,8.5,2,9s0.3,0.9,0.8,1C5,10.5,5.5,11,6,13.2z"/>
		<path d="M11,14c-0.6,0-1,0.4-1,1s0.4,1,1,1c0,0.6,0.4,1,1,1s1-0.4,1-1c0.6,0,1-0.4,1-1s-0.4-1-1-1c0-0.6-0.4-1-1-1S11,13.4,11,14z"/>
	</g>
</svg>
